X: 20104
T: Jimmy Ward's
R: jig
M: 6/8
K: Dmajor
|:d3 def|edB dBA|d3 edB|dBA A3|
d3 def|edB def|g2 e fdB|1 A3 ABc:|2 A3 A2f||
|:g2 e fed|e3 edB|g2 e fdB|A3 ABd|
g2 e fed|ec/A/e efg|age edB|dBA A3:|

